_includes/icons/ios-happy-emoji.svg

<svg fill="#666" height="50" viewBox="0 0 50 50" width="50" xmlns="http://www.w3.org/2000/svg"><path d="m25 2a1.0001 1.0001 0 0 0 -.154297.015625c-12.618634.085343-22.845703 10.345847-22.845703 22.984375 0 12.691367 10.308633 23 23 23s23-10.308633 23-23c0-12.637204-10.224987-22.8969059-22.841797-22.984375a1.0001 1.0001 0 0 0 -.158203-.015625zm0 2c11.610633 0 21 9.389367 21 21s-9.389367 21-21 21-21-9.389367-21-21 9.389367-21 21-21zm-8 14a3 3 0 0 0 -3 3 3 3 0 0 0 3 3 3 3 0 0 0 3-3 3 3 0 0 0 -3-3zm16 0a3 3 0 0 0 -3 3 3 3 0 0 0 3 3 3 3 0 0 0 3-3 3 3 0 0 0 -3-3zm-21.042969 10.988281a1.0001 1.0001 0 0 0 -.771484 1.59375s5.23112 7.417969 13.814453 7.417969 13.814453-7.417969 13.814453-7.417969a1.0010463 1.0010463 0 0 0 -1.628906-1.164062s-4.76888 6.582031-12.185547 6.582031-12.185547-6.582031-12.185547-6.582031a1.0001 1.0001 0 0 0 -.857422-.429688z"/></svg>

<svg xmlns="http://www.w3.org/2000/svg" viewBox="0 0 50 50" width="50" height="50" fill="#666"><path style="line-height:normal;text-indent:0;text-align:start;text-decoration-line:none;text-decoration-style:solid;text-decoration-color:#000;text-transform:none;block-progression:tb;isolation:auto;mix-blend-mode:normal" d="M 25 2 A 1.0001 1.0001 0 0 0 24.845703 2.015625 C 12.227069 2.100968 2 12.361472 2 25 C 2 37.691367 12.308633 48 25 48 C 37.691367 48 48 37.691367 48 25 C 48 12.362796 37.775013 2.1030941 25.158203 2.015625 A 1.0001 1.0001 0 0 0 25 2 z M 25 4 C 36.610633 4 46 13.389367 46 25 C 46 36.610633 36.610633 46 25 46 C 13.389367 46 4 36.610633 4 25 C 4 13.389367 13.389367 4 25 4 z M 17 18 A 3 3 0 0 0 14 21 A 3 3 0 0 0 17 24 A 3 3 0 0 0 20 21 A 3 3 0 0 0 17 18 z M 33 18 A 3 3 0 0 0 30 21 A 3 3 0 0 0 33 24 A 3 3 0 0 0 36 21 A 3 3 0 0 0 33 18 z M 11.957031 28.988281 A 1.0001 1.0001 0 0 0 11.185547 30.582031 C 11.185547 30.582031 16.416667 38 25 38 C 33.583333 38 38.814453 30.582031 38.814453 30.582031 A 1.0010463 1.0010463 0 0 0 37.185547 29.417969 C 37.185547 29.417969 32.416667 36 25 36 C 17.583333 36 12.814453 29.417969 12.814453 29.417969 A 1.0001 1.0001 0 0 0 11.957031 28.988281 z"/></svg>
